src/assets/tokens/bitcoin.svg

<svg width="24" height="24" viewBox="0 0 24 24" fill="none" xmlns="http://www.w3.org/2000/svg">
<g clip-path="url(#clip0_2225_26168)">
<path d="M12 24C14.3734 24 16.6935 23.2962 18.6668 21.9776C20.6402 20.659 22.1783 18.7849 23.0865 16.5922C23.9948 14.3995 24.2324 11.9867 23.7694 9.65893C23.3064 7.33116 22.1635 5.19296 20.4853 3.51472C18.807 1.83649 16.6688 0.693606 14.3411 0.230582C12.0133 -0.23244 9.60051 0.00519878 7.4078 0.913451C5.21507 1.8217 3.34095 3.35977 2.02237 5.33316C0.703787 7.30655 0 9.62663 0 12C0 15.1826 1.26428 18.2348 3.51472 20.4853C5.76516 22.7357 8.8174 24 12 24Z" fill="#F6941A"/>
<path d="M15.513 11.4653C16.2678 11.073 16.7401 10.3823 16.6298 9.23153C16.4812 7.65891 15.1499 7.13158 13.4693 6.98139L13.469 4.80005H12.1668L12.1665 6.92405C11.8239 6.92405 11.4746 6.9309 11.127 6.93802L11.1267 4.80034L9.82571 4.80022L9.82546 6.98102C9.54352 6.98689 9.26662 6.99248 8.99626 6.99248V6.98603L7.2002 6.98528L7.20044 8.40319C7.20044 8.40319 8.16206 8.38473 8.14622 8.40264C8.67344 8.40302 8.84557 8.71529 8.8951 8.98483L8.8955 11.4698V14.9605C8.87228 15.1296 8.77459 15.3999 8.40595 15.4004C8.42272 15.4155 7.45874 15.4003 7.45874 15.4003L7.20044 16.9858H8.89468C9.2104 16.9861 9.52057 16.9911 9.82489 16.9936L9.82603 19.1997L11.1267 19.2L11.1263 17.0171C11.4841 17.0246 11.8296 17.0278 12.1669 17.0273L12.1665 19.2H13.4687L13.4694 16.9977C15.6582 16.8695 17.1905 16.3071 17.381 14.2107C17.5345 12.5228 16.7556 11.7694 15.513 11.4653ZM11.1581 8.49889C11.8925 8.49889 14.2021 8.26037 14.2024 9.82504C14.2021 11.3251 11.8932 11.1499 11.1581 11.1499V8.49889ZM11.1575 15.4112L11.1581 12.4882C12.0404 12.4879 14.808 12.2292 14.8083 13.949C14.8087 15.5983 12.0404 15.4105 11.1575 15.4112Z" fill="white"/>
</g>
<defs>
<clipPath id="clip0_2225_26168">
<rect width="24" height="24" fill="white"/>
</clipPath>
</defs>
</svg>

<svg xmlns="http://www.w3.org/2000/svg" width="24" height="24" fill="none"><g clip-path="url(#a)"><path fill="#F6941A" d="M12 24A12 12 0 1 0 12 .001 12 12 0 0 0 12 24"/><path fill="#fff" d="M15.513 11.465c.755-.392 1.227-1.083 1.117-2.233-.149-1.573-1.48-2.1-3.16-2.25L13.468 4.8h-1.302v2.124q-.516.002-1.04.014V4.8h-1.3v2.181q-.424.01-.83.011v-.006H7.2v1.417s.962-.018.946 0c.527 0 .7.312.75.582v5.975c-.024.17-.121.44-.49.44.017.015-.947 0-.947 0L7.2 16.986h1.695q.473.002.93.008l.001 2.206h1.3v-2.183q.537.011 1.04.01V19.2h1.303v-2.202c2.19-.129 3.722-.69 3.912-2.787.154-1.688-.625-2.442-1.868-2.746M11.158 8.5c.735 0 3.044-.239 3.044 1.326 0 1.5-2.309 1.325-3.044 1.325zm0 6.912v-2.923c.882 0 3.65-.259 3.65 1.461 0 1.65-2.768 1.462-3.65 1.462"/></g><defs><clipPath id="a"><path fill="#fff" d="M0 0h24v24H0z"/></clipPath></defs></svg>
